static/logos/zendesk-wordmark-color.svg

<svg width="100" height="20" viewBox="0 0 100 20" fill="none" xmlns="http://www.w3.org/2000/svg">
<g clip-path="url(#clip0_1_327)">
<path d="M66.9307 16.5359C68.2177 16.5359 69.5049 16.0407 70.4949 15.1497L72.2771 17.031C70.8911 18.4172 69.0099 19.2094 67.0297 19.1104C62.7723 19.1104 59.9009 16.2388 59.9009 12.3771C59.8019 8.71347 62.6733 5.74294 66.3365 5.64392C66.4355 5.64392 66.5347 5.64392 66.6337 5.64392C70.8911 5.64392 73.3663 8.9115 73.1683 13.4663H62.9703C63.2673 15.4467 65.0495 16.7339 66.9307 16.5359ZM69.9999 11.2879C69.9009 9.5056 68.4157 8.11936 66.6337 8.21838C64.7525 8.11936 63.1683 9.40658 62.9703 11.2879H69.9999Z" fill="#072F35"/>
<path d="M0 16.437L7.82178 8.5156H0.19802V6.04016H11.3861V8.61462L3.56436 16.536H11.4851V19.0115H0V16.437Z" fill="#072F35"/>
<path d="M20.7952 16.536C22.0824 16.536 23.3695 16.0408 24.3596 15.1497L26.1418 17.031C24.7556 18.5163 22.7754 19.3085 20.7952 19.2094C16.4388 19.2094 13.6665 16.3379 13.6665 12.4762C13.5675 8.81259 16.4388 5.84206 20.1022 5.74304C20.2012 5.74304 20.3002 5.74304 20.3992 5.74304C24.6566 5.74304 27.1318 9.01062 26.8348 13.5654H16.8348C17.1318 15.4468 18.914 16.734 20.7952 16.536ZM23.8646 11.288C23.7656 9.50571 22.2804 8.11947 20.4982 8.21848C18.716 8.11947 17.1318 9.40669 16.8348 11.288H23.8646Z" fill="#072F35"/>
<path d="M43.7655 12.4762C43.5675 8.91158 46.3398 5.84204 49.9041 5.74302C50.0031 5.74302 50.1022 5.74302 50.2012 5.74302C51.8843 5.74302 53.4685 6.43614 54.4586 7.72338V0H57.2309V18.9124H54.4586V17.1301C53.3695 18.4172 51.7853 19.2094 50.1021 19.2094C46.5378 19.2094 43.5675 16.2389 43.6665 12.6743C43.7655 12.5752 43.7655 12.4762 43.7655 12.4762ZM54.6566 12.4762C54.6566 10.1988 52.7754 8.4165 50.5972 8.4165C48.32 8.4165 46.5378 10.2978 46.5378 12.4762C46.5378 14.7536 48.419 16.5359 50.5972 16.5359C52.8744 16.5359 54.6566 14.7536 54.6566 12.4762Z" fill="#072F35"/>
<path d="M74.8516 16.2388L77.3268 14.8526C78.0198 16.0407 79.307 16.7339 80.5942 16.7339C82.1783 16.7339 82.9704 15.9417 82.9704 15.0506C82.9704 14.1594 81.4852 13.7634 79.802 13.4663C77.6238 12.9712 75.3466 12.2781 75.3466 9.60462C75.3466 7.52525 77.3268 5.64393 80.3961 5.64393C82.4753 5.54491 84.4556 6.43606 85.6436 8.11937L83.3664 9.50561C82.6734 8.51544 81.5842 8.02035 80.4951 8.02035C79.01 8.02035 78.3169 8.71347 78.3169 9.60462C78.3169 10.4958 79.505 10.7928 81.3862 11.1889C83.5644 11.684 85.9406 12.3771 85.9406 15.0506C85.9406 16.8329 84.3565 19.2093 80.6932 19.2093C78.2179 19.4074 75.9406 18.2191 74.8516 16.2388Z" fill="#072F35"/>
<path d="M92.8723 13.1693L90.6941 15.5457V18.9124H87.9219V0H90.6941V12.3772L96.5357 5.94105H99.9021L94.8525 11.486L100.001 18.9124H96.9317L92.8723 13.1693Z" fill="#072F35"/>
<path d="M35.5474 5.74304C32.28 5.74304 29.5078 7.92142 29.5078 11.387V19.0114H32.28V11.7831C32.082 10.0998 33.2702 8.61455 34.9534 8.41652C35.1514 8.41652 35.3494 8.41652 35.5474 8.41652C37.6266 8.41652 38.6168 9.70374 38.6168 11.7831V19.0114H41.587V11.387C41.587 7.8224 38.8148 5.74304 35.5474 5.74304Z" fill="#072F35"/>
</g>
<defs>
<clipPath id="clip0_1_327">
<rect width="100" height="19.2308" fill="white"/>
</clipPath>
</defs>
</svg>

<svg xmlns="http://www.w3.org/2000/svg" width="320" height="64" fill="none" viewBox="0 0 100 20"><g fill="#072F35" clip-path="url(#a)"><path d="M66.93 16.536a5.372 5.372 0 0 0 3.565-1.386l1.782 1.881c-1.386 1.386-3.267 2.178-5.247 2.08-4.258 0-7.13-2.872-7.13-6.734-.098-3.664 2.773-6.634 6.437-6.733h.297c4.257 0 6.732 3.268 6.534 7.822H62.97a3.613 3.613 0 0 0 3.96 3.07ZM70 11.288c-.1-1.782-1.584-3.169-3.366-3.07-1.882-.099-3.466 1.189-3.664 3.07H70ZM0 16.437l7.822-7.921H.198V6.04h11.188v2.575l-7.822 7.921h7.921v2.476H0v-2.575ZM20.795 16.536a5.372 5.372 0 0 0 3.565-1.386l1.782 1.881a6.886 6.886 0 0 1-5.347 2.178c-4.356 0-7.129-2.871-7.129-6.733-.098-3.663 2.773-6.634 6.436-6.733h.297c4.258 0 6.733 3.268 6.436 7.822h-10c.297 1.882 2.079 3.169 3.96 2.971Zm3.07-5.248c-.1-1.782-1.585-3.169-3.367-3.07-1.782-.099-3.366 1.189-3.663 3.07h7.03ZM43.766 12.476c-.198-3.564 2.574-6.634 6.138-6.733h.297c1.683 0 3.267.693 4.258 1.98V0h2.772v18.912h-2.772V17.13c-1.09 1.287-2.674 2.08-4.357 2.08-3.564 0-6.534-2.971-6.435-6.536.099-.099.099-.198.099-.198Zm10.89 0c0-2.277-1.88-4.06-4.059-4.06-2.277 0-4.06 1.882-4.06 4.06 0 2.278 1.882 4.06 4.06 4.06 2.277 0 4.06-1.782 4.06-4.06ZM74.852 16.239l2.475-1.386a3.821 3.821 0 0 0 3.267 1.88c1.584 0 2.376-.791 2.376-1.682 0-.892-1.485-1.288-3.168-1.585-2.178-.495-4.455-1.188-4.455-3.861 0-2.08 1.98-3.961 5.05-3.961 2.078-.1 4.059.792 5.247 2.475l-2.278 1.387a3.48 3.48 0 0 0-2.87-1.486c-1.486 0-2.18.693-2.18 1.585 0 .89 1.189 1.188 3.07 1.584 2.178.495 4.555 1.188 4.555 3.862 0 1.782-1.585 4.158-5.248 4.158-2.475.198-4.752-.99-5.841-2.97ZM92.872 13.17l-2.178 2.376v3.366h-2.772V0h2.772v12.377l5.842-6.436h3.366l-5.05 5.545 5.149 7.426h-3.07l-4.059-5.743ZM35.547 5.743c-3.267 0-6.04 2.178-6.04 5.644v7.624h2.773v-7.228a3.02 3.02 0 0 1 2.673-3.366h.594c2.08 0 3.07 1.287 3.07 3.366v7.228h2.97v-7.624c0-3.565-2.772-5.644-6.04-5.644Z"/></g><defs><clipPath id="a"><path fill="#fff" d="M0 0h100v19.231H0z"/></clipPath></defs></svg>
